src/lib/packages/icons/src/assets/line/camera.svg

<svg width="24" height="24" viewBox="0 0 24 24" fill="none" xmlns="http://www.w3.org/2000/svg">
<path d="M18 6.25H16.54L16.054 4.78906C15.747 3.86906 14.8889 3.25 13.9189 3.25H10.0811C9.11105 3.25 8.25305 3.86906 7.94604 4.78906L7.45996 6.25H6C3.582 6.25 2.25 7.582 2.25 10V18C2.25 20.418 3.582 21.75 6 21.75H18C20.418 21.75 21.75 20.418 21.75 18V10C21.75 7.582 20.418 6.25 18 6.25ZM20.25 18C20.25 19.577 19.577 20.25 18 20.25H6C4.423 20.25 3.75 19.577 3.75 18V10C3.75 8.423 4.423 7.75 6 7.75H8C8.323 7.75 8.60891 7.54306 8.71191 7.23706L9.37012 5.26196C9.47212 4.95496 9.75805 4.74902 10.0811 4.74902H13.9189C14.2419 4.74902 14.5279 4.95496 14.6299 5.26196L15.2881 7.23608C15.3911 7.54208 15.677 7.74902 16 7.74902H18C19.577 7.74902 20.25 8.42202 20.25 9.99902V18ZM12 10.25C9.933 10.25 8.25 11.932 8.25 14C8.25 16.068 9.933 17.75 12 17.75C14.067 17.75 15.75 16.068 15.75 14C15.75 11.932 14.067 10.25 12 10.25ZM12 16.25C10.76 16.25 9.75 15.241 9.75 14C9.75 12.759 10.76 11.75 12 11.75C13.24 11.75 14.25 12.759 14.25 14C14.25 15.241 13.24 16.25 12 16.25ZM18.5 10.5C18.5 11.052 18.052 11.5 17.5 11.5C16.948 11.5 16.5 11.052 16.5 10.5C16.5 9.948 16.948 9.5 17.5 9.5C18.052 9.5 18.5 9.948 18.5 10.5Z" fill="currentColor"/>
</svg>

<svg xmlns="http://www.w3.org/2000/svg" width="24" height="24" fill="none"><path fill="currentColor" d="M18 6.25h-1.46l-.486-1.46a2.249 2.249 0 0 0-2.135-1.54H10.08c-.97 0-1.828.62-2.135 1.54L7.46 6.25H6c-2.418 0-3.75 1.332-3.75 3.75v8c0 2.418 1.332 3.75 3.75 3.75h12c2.418 0 3.75-1.332 3.75-3.75v-8c0-2.418-1.332-3.75-3.75-3.75ZM20.25 18c0 1.577-.673 2.25-2.25 2.25H6c-1.577 0-2.25-.673-2.25-2.25v-8c0-1.577.673-2.25 2.25-2.25h2a.752.752 0 0 0 .712-.513l.658-1.975a.748.748 0 0 1 .711-.513h3.838c.323 0 .609.206.71.513l.66 1.974A.752.752 0 0 0 16 7.75h2c1.577 0 2.25.673 2.25 2.25v8ZM12 10.25A3.755 3.755 0 0 0 8.25 14 3.755 3.755 0 0 0 12 17.75 3.755 3.755 0 0 0 15.75 14 3.755 3.755 0 0 0 12 10.25Zm0 6A2.253 2.253 0 0 1 9.75 14c0-1.241 1.01-2.25 2.25-2.25s2.25 1.009 2.25 2.25-1.01 2.25-2.25 2.25Zm6.5-5.75a1 1 0 1 1-2 0 1 1 0 0 1 2 0Z"/></svg>
